assets/svg/1f4c2.svg

<svg xmlns="http://www.w3.org/2000/svg" viewBox="0 0 64 64" enable-background="new 0 0 64 64"><path fill="#962c2c" d="m49.25.172l-22.291 8.552c0 0-.801-1.97-1.543-3.149-1.731-2.75-4.691-1.905-4.691-1.905l-17 6.103c0 0-2.348 1.086-3.306 3.965-.945 2.838 0 6.298 0 6.298l9.822 43.964 39.01-37.551c0 0 1.305-16.757 2.086-24.524.275-2.735-2.086-1.753-2.086-1.753"/><path fill="#ff8736" d="m10.242 64l42.693-33.35c0 0 10.635-21.438 10.997-22.971.435-1.833-1.386-1.222-1.386-1.222l-22.793 10.652c0 0-1.354 6.03-4.094 7.606-2.989 1.725-17 9.342-17 9.342s-1.997 1.311-3.148 3.421c-1.102 2.02-5.268 26.525-5.268 26.525"/></svg>

<svg xmlns="http://www.w3.org/2000/svg" width="64" height="64" viewBox="0 0 64 64"><path fill="#962C2C" d="M49.252.172L26.961 8.724s-.801-1.97-1.543-3.149c-1.731-2.75-4.691-1.905-4.691-1.905L3.726 9.773S1.378 10.859.42 13.738c-.945 2.838 0 6.298 0 6.298L10.242 64l39.01-37.551s1.305-16.757 2.086-24.524C51.613-.81 49.252.172 49.252.172z"/><path fill="#FF8736" d="M10.242 64l42.693-33.353S63.57 9.209 63.932 7.676c.435-1.833-1.386-1.222-1.386-1.222L39.753 17.106s-1.354 6.026-4.094 7.606c-2.989 1.725-17.001 9.342-17.001 9.342s-1.997 1.311-3.148 3.421C14.408 39.496 10.242 64 10.242 64z"/></svg>
